themes/default/static/logos/tech/azure-logo.svg

<svg width="32" height="32" viewBox="0 0 32 32" fill="none" xmlns="http://www.w3.org/2000/svg">
<path d="M10.6284 1.00036H20.0625L10.269 30.0174C10.1684 30.3156 9.97672 30.5746 9.72109 30.7583C9.46546 30.9417 9.15873 31.0405 8.84401 31.0405H1.50199C1.26355 31.0407 1.02853 30.9839 0.816373 30.8749C0.604215 30.7662 0.42102 30.6085 0.281943 30.4149C0.142863 30.221 0.0518982 29.997 0.016573 29.7612C-0.018752 29.5254 0.00257808 29.2847 0.0787981 29.0588L9.20306 2.02355C9.30368 1.72525 9.49535 1.46604 9.75105 1.28242C10.0068 1.09879 10.3136 1.00002 10.6284 1V1.00036Z" fill="url(#paint0_linear_107:2)"/>
<path d="M24.3374 20.463H9.37724C9.23816 20.4629 9.10225 20.5046 8.98724 20.5828C8.8722 20.661 8.78339 20.772 8.73237 20.9014C8.68134 21.0308 8.67046 21.1725 8.70114 21.3082C8.73184 21.4438 8.80266 21.5671 8.90441 21.6619L18.5175 30.6344C18.7973 30.8955 19.1659 31.0407 19.5486 31.0404H28.0197L24.3374 20.463Z" fill="#0078D4"/>
<path d="M10.6285 1.00038C10.3102 0.999156 9.99992 1.09972 9.7429 1.28739C9.48588 1.47506 9.2956 1.73999 9.19985 2.04349L0.0900645 29.034C0.00871655 29.2608 -0.0168225 29.5038 0.0156079 29.7426C0.0480383 29.9812 0.137484 30.2087 0.276378 30.4054C0.415274 30.6022 0.599531 30.7627 0.813563 30.8733C1.0276 30.9839 1.26511 31.0412 1.50601 31.0405H9.03753C9.31804 30.9904 9.58021 30.8668 9.79728 30.6822C10.0143 30.4976 10.1785 30.2586 10.273 29.9898L12.0897 24.6359L18.5788 30.6885C18.8508 30.9134 19.1919 31.0377 19.5448 31.0405H27.9842L24.2828 20.4631L13.4926 20.4656L20.0966 1.00038H10.6285Z" fill="url(#paint1_linear_107:2)"/>
<path d="M22.678 2.02211C22.5776 1.72429 22.3862 1.46551 22.1309 1.28221C21.8756 1.09891 21.5692 1.00033 21.2549 1.00037H10.7407C11.055 1.00038 11.3614 1.09898 11.6167 1.28227C11.872 1.46557 12.0634 1.72432 12.1639 2.02211L21.2885 29.0583C21.3648 29.2842 21.3862 29.5251 21.3509 29.761C21.3156 29.997 21.2247 30.221 21.0856 30.4149C20.9465 30.6085 20.7633 30.7664 20.5511 30.8752C20.3389 30.9841 20.1039 31.041 19.8654 31.041H30.3799C30.6183 31.041 30.8534 30.9841 31.0656 30.8752C31.2775 30.7662 31.4607 30.6083 31.5999 30.4146C31.739 30.2208 31.8299 29.9968 31.8651 29.761C31.9004 29.5251 31.879 29.2842 31.8028 29.0583L22.678 2.02211Z" fill="url(#paint2_linear_107:2)"/>
<defs>
<linearGradient id="paint0_linear_107:2" x1="14.0668" y1="3.22645" x2="4.26938" y2="32.1707" gradientUnits="userSpaceOnUse">
<stop stop-color="#114A8B"/>
<stop offset="1" stop-color="#0669BC"/>
</linearGradient>
<linearGradient id="paint1_linear_107:2" x1="17.1274" y1="16.7152" x2="14.8611" y2="17.4815" gradientUnits="userSpaceOnUse">
<stop stop-opacity="0.3"/>
<stop offset="0.071" stop-opacity="0.2"/>
<stop offset="0.321" stop-opacity="0.1"/>
<stop offset="0.623" stop-opacity="0.05"/>
<stop offset="1" stop-opacity="0"/>
</linearGradient>
<linearGradient id="paint2_linear_107:2" x1="15.8809" y1="2.38225" x2="26.6357" y2="31.0347" gradientUnits="userSpaceOnUse">
<stop stop-color="#3CCBF4"/>
<stop offset="1" stop-color="#2892DF"/>
</linearGradient>
</defs>
</svg>

<svg id="Layer_1" data-name="Layer 1" xmlns="http://www.w3.org/2000/svg" xmlns:xlink="http://www.w3.org/1999/xlink" viewBox="0 0 31.882 30.041"><defs><style>.cls-1{fill:url(#linear-gradient);}.cls-2{fill:#0078d4;}.cls-3{fill:url(#linear-gradient-2);}.cls-4{fill:url(#linear-gradient-3);}</style><linearGradient id="linear-gradient" x1="14.067" y1="28.663" x2="4.269" y2="-0.281" gradientTransform="matrix(1, 0, 0, -1, 0, 31.89)" gradientUnits="userSpaceOnUse"><stop offset="0" stop-color="#114a8b"/><stop offset="1" stop-color="#0669bc"/></linearGradient><linearGradient id="linear-gradient-2" x1="17.127" y1="15.175" x2="14.861" y2="14.409" gradientTransform="matrix(1, 0, 0, -1, 0, 31.89)" gradientUnits="userSpaceOnUse"><stop offset="0" stop-opacity="0.3"/><stop offset="0.071" stop-opacity="0.2"/><stop offset="0.321" stop-opacity="0.1"/><stop offset="0.623" stop-opacity="0.05"/><stop offset="1" stop-opacity="0"/></linearGradient><linearGradient id="linear-gradient-3" x1="15.951" y1="29.534" x2="26.706" y2="0.882" gradientTransform="matrix(1, 0, 0, -1, 0, 31.89)" gradientUnits="userSpaceOnUse"><stop offset="0" stop-color="#3ccbf4"/><stop offset="1" stop-color="#2892df"/></linearGradient></defs><path class="cls-1" d="M10.628,1h9.434L10.269,30.017a1.506,1.506,0,0,1-1.425,1.024H1.5A1.5,1.5,0,0,1,.079,29.059L9.2,2.024A1.5,1.5,0,0,1,10.628,1Z" transform="translate(0 -1)"/><path class="cls-2" d="M24.337,20.463H9.377a.693.693,0,0,0-.473,1.2l9.613,8.972a1.5,1.5,0,0,0,1.032.406H28.02Z" transform="translate(0 -1)"/><path class="cls-3" d="M10.628,1A1.492,1.492,0,0,0,9.2,2.043L.09,29.034a1.5,1.5,0,0,0,1.416,2.007H9.038a1.614,1.614,0,0,0,1.235-1.051l1.817-5.354,6.489,6.052a1.536,1.536,0,0,0,.966.353h8.439l-3.7-10.578-10.79,0L20.1,1Z" transform="translate(0 -1)"/><path class="cls-4" d="M22.678,2.022A1.5,1.5,0,0,0,21.255,1H10.741a1.5,1.5,0,0,1,1.423,1.022l9.124,27.036a1.5,1.5,0,0,1-1.423,1.983H30.38A1.5,1.5,0,0,0,31.8,29.058Z" transform="translate(0 -1)"/></svg>
